icons/test-tubes.svg

<?xml version="1.0" encoding="UTF-8"?><svg xmlns="http://www.w3.org/2000/svg" viewBox="0 0 50 50"><g id="uuid-1344bec6-2937-420f-a751-5b34aee838b6"><path d="M48.36,39.18h-2.26V18.12c0-.28-.22-.5-.5-.5h-4.13v-7.94h.72c.28,0,.5-.22,.5-.5v-3.07c0-.28-.22-.5-.5-.5h-9.11c-.28,0-.5,.22-.5,.5v3.07c0,.28,.22,.5,.5,.5h.72v7.94h-5.21v-7.94h.76c.28,0,.5-.22,.5-.5v-3.07c0-.28-.22-.5-.5-.5h-9.11c-.28,0-.5,.22-.5,.5v3.07c0,.28,.22,.5,.5,.5h.68v7.94h-5.13v-7.94h.72c.28,0,.5-.22,.5-.5v-3.07c0-.28-.22-.5-.5-.5H7.39c-.28,0-.5,.22-.5,.5v3.07c0,.28,.22,.5,.5,.5h.72v7.94H4.04c-.28,0-.5,.22-.5,.5v21.06H1.14c-.28,0-.5,.22-.5,.5v3.71c0,.28,.22,.5,.5,.5H48.36c.28,0,.5-.22,.5-.5v-3.71c0-.28-.22-.5-.5-.5ZM33.58,6.61h8.11v2.07h-8.11v-2.07Zm1.22,3.07h5.67v7.94h-5.67v-7.94Zm5.67,19.57s0,.04,0,.06c0,1.7-1.27,3.08-2.84,3.08s-2.83-1.38-2.83-3.12c0-.03,0-.06,0-.1v-5.32h5.67v5.39h0Zm0-6.39h-5.67v-4.24h5.67v4.24ZM20.74,6.61h8.11v2.07h-8.11v-2.07Zm1.18,3.07h5.67v7.94h-5.67v-7.94Zm5.67,19.57s0,.04,0,.06c0,1.7-1.27,3.08-2.84,3.08s-2.83-1.38-2.83-3.12c0-.03,0-.06,0-.1v-7.17h5.67v7.25h0Zm0-8.25h-5.67v-2.39h5.67v2.39ZM7.89,6.61h8.11v2.07H7.89v-2.07Zm1.22,3.07h5.67v7.94h-5.67v-7.94Zm5.67,19.57s0,.04,0,.06c0,1.7-1.27,3.08-2.84,3.08s-2.83-1.38-2.83-3.12c0-.03,0-.06,0-.1v-4.07h5.67v4.15h0Zm0-5.15h-5.67v-5.49h5.67v5.49Zm-10.25-5.49h3.58v10.63s0,.04,0,.06h0c0,2.25,1.72,4.08,3.83,4.08s3.8-1.79,3.83-4.06c0-.03,0-.05,0-.08v-10.63h5.13v10.63s0,.04,0,.06h0c0,2.25,1.72,4.08,3.83,4.08s3.8-1.79,3.83-4.06c0-.03,0-.05,0-.08v-10.63h5.21v10.63s0,.04,0,.06h0c0,2.25,1.72,4.08,3.83,4.08s3.8-1.79,3.83-4.06c0-.03,0-.05,0-.08v-10.63h3.63v20.56H4.54V18.62Zm43.32,24.27H1.64v-2.71H47.86v2.71Z"/></g><g id="uuid-9bd2ea0f-766f-40cd-8f8b-ba54a4f5cbee"><text transform="translate(-.1 54.73)" font-family="Roboto-Regular, Roboto" font-size="6"><tspan x="0" y="0">test tubes</tspan></text></g></svg>

<svg xmlns="http://www.w3.org/2000/svg" viewBox="0 0 50 50"><g id="b69c90ce-4bad-4964-9a6f-fddfc3b9f150" data-name="ICONS"><path d="M48.36,39.18H46.1V18.12a.5.5,0,0,0-.5-.5H41.47V9.68h.72a.5.5,0,0,0,.5-.5V6.11a.5.5,0,0,0-.5-.5H33.08a.5.5,0,0,0-.5.5V9.18a.5.5,0,0,0,.5.5h.72v7.94H28.59V9.68h.76a.5.5,0,0,0,.5-.5V6.11a.5.5,0,0,0-.5-.5H20.24a.5.5,0,0,0-.5.5V9.18a.5.5,0,0,0,.5.5h.68v7.94H15.79V9.68h.72a.5.5,0,0,0,.5-.5V6.11a.5.5,0,0,0-.5-.5H7.39a.5.5,0,0,0-.5.5V9.18a.5.5,0,0,0,.5.5h.73v7.94H4a.5.5,0,0,0-.5.5V39.18H1.14a.5.5,0,0,0-.5.5v3.71a.5.5,0,0,0,.5.5H48.36a.5.5,0,0,0,.5-.5V39.68A.5.5,0,0,0,48.36,39.18ZM33.58,6.61h8.11V8.68H33.58ZM34.8,9.68h5.67v7.94H34.8Zm5.67,19.58v.06a2.85,2.85,0,1,1-5.67,0V23.86h5.67v5.4Zm0-6.4H34.8V18.62h5.67ZM20.74,6.61h8.11V8.68H20.74Zm1.18,3.07h5.67v7.94H21.92Zm5.67,19.58v.06a3,3,0,0,1-2.84,3.08,3,3,0,0,1-2.83-3.12V22h5.67v7.25Zm0-8.25H21.92V18.62h5.67ZM7.89,6.61H16V8.68H7.89ZM9.12,9.68h5.67v7.94H9.12Zm5.67,19.58v.06A3,3,0,0,1,12,32.4a3,3,0,0,1-2.83-3.12V25.11h5.67v4.15Zm0-5.15H9.12V18.62h5.67ZM4.54,18.62H8.12v10.7h0A4,4,0,0,0,12,33.4a4,4,0,0,0,3.83-4.06.25.25,0,0,0,0-.08V18.62h5.13v10.7h0a4,4,0,0,0,3.83,4.08,4,4,0,0,0,3.83-4.06s0-.06,0-.08V18.62H33.8v10.7h0a3.84,3.84,0,1,0,7.66,0,.25.25,0,0,0,0-.08V18.62H45.1V39.18H4.54ZM47.86,42.89H1.64V40.18H47.86Z"/></g><g id="a8b584ac-494d-4fd4-93c4-b6b152aede6f" data-name="LABELS"><text transform="translate(-0.1 54.73)" font-size="6" font-family="Roboto-Regular, Roboto">test tubes</text></g></svg>
